icons/pencil.svg

<svg xmlns="http://www.w3.org/2000/svg" width="24" height="24" viewBox="0 0 24 24">
  <path d="M12.585,5.99942712 L17.999,11.4134271 L7.70710678,21.7071068 C7.55082647,21.8633871 7.34814508,21.9625983 7.13144398,21.9913276 L7,22 L3,22 C2.44771525,22 2,21.5522847 2,21 L2,21 L2,17 C2,16.7347835 2.10535684,16.4804296 2.29289322,16.2928932 L2.29289322,16.2928932 L12.585,5.99942712 Z M15.8786797,2.70710678 C17.0502525,1.53553391 18.9497475,1.53553391 20.1213203,2.70710678 L20.1213203,2.70710678 L21.2928932,3.87867966 C22.4644661,5.05025253 22.4644661,6.94974747 21.2928932,8.12132034 L21.2928932,8.12132034 L19.414,9.99942712 L14,4.58542712 Z"/>
</svg>

<svg xmlns="http://www.w3.org/2000/svg" viewBox="0 0 24 24">
  <path d="m12.59 6 5.4 5.41-10.28 10.3a1 1 0 0 1-.58.28L7 22H3a1 1 0 0 1-1-1v-4a1 1 0 0 1 .3-.7L12.58 6zm3.29-3.3a3 3 0 0 1 4.24 0l1.17 1.18a3 3 0 0 1 0 4.24L19.41 10 14 4.59z"/>
</svg>
